src/assets/card-white-font.svg

<svg xmlns="http://www.w3.org/2000/svg" width="337" height="212" fill="none"><g filter="url(#a)"><rect width="329" height="202.999" x="3.992" y="4.979" fill="#fff" rx="3.024"/><path fill="#134B93" d="M115.515 105.392v1.238h-1.316v7.896c-.542.155-1.303.4-2.283.736-.981.309-1.561.49-1.742.541-1.703.413-3.626.62-5.767.62-3.226 0-6.038-1.342-8.438-4.026-2.27-2.735-3.393-6.089-3.367-10.063.025-4 1.186-7.316 3.483-9.948 2.27-2.503 5.045-3.754 8.322-3.754 2.219 0 3.961.155 5.225.464.516.104 1.471.426 2.864.968v6.077h-1.161c-.181-2.245-.8-3.884-1.858-4.916-1.058-1.032-2.683-1.496-4.877-1.393-5.031.31-7.547 4.541-7.547 12.695 0 3.69.658 6.696 1.974 9.019 1.316 2.296 3.07 3.458 5.264 3.483 1.29.026 2.696-.258 4.219-.851 1.341-.465 2.077-.929 2.206-1.394.129-.258.193-.774.193-1.548v-4.606h-4.373v-1.238h8.979Zm28.539 8.399-7.393-10.567H134.3l.077 11.457h3.6v1.2h-10.76v-1.2h3.599V90.412h-3.599v-1.2h11.727c3.123 0 5.497.62 7.122 1.858 1.626 1.239 2.439 2.89 2.439 4.955 0 2.064-.723 3.741-2.168 5.032-1.393 1.161-3.225 1.819-5.496 1.974l7.935 10.76c.413.516 1.329.838 2.748.967v1.162c-1.884-.078-4.864-.078-8.941 0l.039-1.239h1.083c.362-.077.542-.206.542-.387a.68.68 0 0 0-.193-.503Zm-6.387-11.689c4.696 0 6.993-2.026 6.89-6.077-.103-3.742-2.129-5.613-6.077-5.613h-4.103l-.077 11.69h3.367Zm50.287 12.579v1.2H177.89v-1.2h3.097l-2.632-7.625h-9.328l-1.471 3.483c-.465 1.187-.697 2.065-.697 2.632 0 .542.078.929.232 1.162.155.232.968.348 2.439.348v1.2h-8.438v-1.2c1.342.026 2.309-.142 2.903-.503.619-.387 1.29-1.6 2.013-3.639l8.399-22.062h1.548l9.135 26.204h2.864Zm-18.385-9.096h8.244l-3.832-11.34-4.412 11.34Zm46.797 1.781c0 2.993-1.2 5.276-3.6 6.851-2.064 1.367-4.657 2.051-7.78 2.051-1.883 0-3.986-.439-6.309-1.316l.039-6.154h1.161c.155 2.038.761 3.509 1.819 4.412.491.413 1.213.761 2.168 1.045.955.284 1.819.413 2.593.387 1.781-.026 3.342-.503 4.683-1.432 1.316-.955 2-2.232 2.052-3.832 0-1.677-.594-3.019-1.781-4.025-1.161-1.006-2.773-1.626-4.838-1.858-5.496-.671-8.244-2.967-8.244-6.89 0-2.735 1.045-4.812 3.135-6.231 1.781-1.239 3.948-1.858 6.503-1.858.748 0 1.638.116 2.67.348 1.032.207 1.69.31 1.974.31.31 0 .516-.194.62-.58h1.083v6.928h-1.161c-.18-1.91-.761-3.29-1.742-4.142-.954-.852-2.386-1.264-4.296-1.239-3.767.052-5.625 1.742-5.574 5.07.052 2.968 2.116 4.659 6.193 5.071 5.755.62 8.632 2.981 8.632 7.084Zm28.359 0c0 2.993-1.2 5.276-3.599 6.851-2.065 1.367-4.658 2.051-7.78 2.051-1.884 0-3.987-.439-6.309-1.316l.039-6.154h1.161c.155 2.038.761 3.509 1.819 4.412.49.413 1.213.761 2.167 1.045.955.284 1.82.413 2.594.387 1.78-.026 3.341-.503 4.683-1.432 1.316-.955 2-2.232 2.051-3.832 0-1.677-.593-3.019-1.78-4.025-1.161-1.006-2.774-1.626-4.838-1.858-5.496-.671-8.245-2.967-8.245-6.89 0-2.735 1.046-4.812 3.136-6.231 1.78-1.239 3.948-1.858 6.502-1.858.749 0 1.639.116 2.671.348 1.032.207 1.69.31 1.974.31.31 0 .516-.194.619-.58h1.084v6.928h-1.161c-.181-1.91-.761-3.29-1.742-4.142-.955-.852-2.387-1.264-4.296-1.239-3.768.052-5.626 1.742-5.574 5.07.052 2.968 2.116 4.659 6.193 5.071 5.754.62 8.631 2.981 8.631 7.084ZM119.895 131.241h2.942v.59h-2.942v-.59Zm.117 2.855h-.697v-5.467h3.861v.58h-3.164v4.887Zm4.846 0 2.526-5.467h.687l2.525 5.467h-.696l-2.294-5.09h.242l-2.303 5.09h-.687Zm1.065-1.413.203-.561h3.116l.203.561h-3.522Zm10.989-.077c0 .303-.084.57-.252.803-.161.232-.4.416-.716.551-.31.129-.693.194-1.151.194a3.8 3.8 0 0 1-1.21-.194c-.381-.129-.681-.293-.9-.493l.29-.542c.2.187.465.342.794.464.335.116.684.174 1.045.174.503 0 .861-.087 1.074-.261.219-.18.329-.393.329-.638 0-.207-.061-.368-.184-.484a1.267 1.267 0 0 0-.484-.291 4.484 4.484 0 0 0-.658-.193c-.238-.052-.477-.11-.716-.174a3.258 3.258 0 0 1-.667-.261c-.2-.11-.362-.255-.484-.436-.116-.181-.174-.419-.174-.716s.08-.561.241-.793c.162-.233.397-.417.707-.552.309-.135.69-.203 1.142-.203.322 0 .638.042.948.126.316.077.587.196.813.358l-.252.561a2.229 2.229 0 0 0-.745-.339 3.012 3.012 0 0 0-.784-.106c-.477 0-.829.09-1.054.271a.795.795 0 0 0-.329.648c0 .206.061.371.183.493.123.117.284.213.484.291.2.071.42.132.658.184.245.051.487.109.726.174.239.064.458.151.658.261.2.103.361.245.484.426.122.18.184.413.184.697Zm3.081 1.49v-5.467h.697v2.399h3.319v-2.399h.696v5.467h-.696v-2.477h-3.319v2.477h-.697Zm8.392 0v-5.467h.697v5.467h-.697Zm6.756.058a3.13 3.13 0 0 1-1.499-.358 2.796 2.796 0 0 1-1.055-.997 2.777 2.777 0 0 1-.378-1.442c0-.535.126-1.013.378-1.432a2.803 2.803 0 0 1 1.055-.997 3.056 3.056 0 0 1 1.499-.367c.562 0 1.062.122 1.5.367.445.246.794.578 1.045.997.258.419.387.897.387 1.432a2.727 2.727 0 0 1-1.432 2.439c-.438.238-.938.358-1.5.358Zm0-.6c.433 0 .816-.094 1.152-.281.335-.193.6-.455.793-.784.194-.335.291-.712.291-1.132 0-.419-.1-.793-.3-1.122a2.079 2.079 0 0 0-.794-.774 2.204 2.204 0 0 0-1.142-.291c-.425 0-.809.097-1.151.291-.336.187-.6.445-.794.774-.193.329-.29.703-.29 1.122 0 .42.097.797.29 1.132.194.329.458.591.794.784a2.36 2.36 0 0 0 1.151.281Zm6.059.542v-5.467h.571l3.716 4.605h-.271v-4.605h.697v5.467h-.581l-3.716-4.616h.281v4.616h-.697Zm13.15-2.855h2.942v.59h-2.942v-.59Zm.117 2.855h-.697v-5.467h3.861v.58h-3.164v4.887Zm8.459.058a3.13 3.13 0 0 1-1.499-.358 2.796 2.796 0 0 1-1.055-.997 2.777 2.777 0 0 1-.378-1.442c0-.535.126-1.013.378-1.432a2.803 2.803 0 0 1 1.055-.997 3.056 3.056 0 0 1 1.499-.367c.562 0 1.062.122 1.5.367.445.246.794.578 1.045.997.258.419.387.897.387 1.432a2.727 2.727 0 0 1-1.432 2.439c-.438.238-.938.358-1.5.358Zm0-.6c.433 0 .816-.094 1.152-.281.335-.193.6-.455.793-.784.194-.335.291-.712.291-1.132 0-.419-.1-.793-.3-1.122a2.079 2.079 0 0 0-.794-.774 2.204 2.204 0 0 0-1.142-.291c-.425 0-.809.097-1.151.291-.335.187-.6.445-.794.774-.193.329-.29.703-.29 1.122 0 .42.097.797.29 1.132.194.329.459.591.794.784a2.36 2.36 0 0 0 1.151.281Zm6.059.542v-5.467h2.119c.478 0 .884.074 1.22.222.342.148.606.365.793.648.187.278.281.616.281 1.016 0 .387-.094.723-.281 1.007-.187.284-.451.5-.793.648-.336.148-.742.223-1.22.223h-1.732l.31-.31v2.013h-.697Zm3.745 0-1.432-1.984h.764l1.423 1.984h-.755Zm-3.048-1.945-.271-.329h1.664c.529 0 .933-.113 1.21-.339.277-.232.416-.555.416-.968 0-.419-.139-.741-.416-.967-.277-.226-.681-.339-1.21-.339h-1.664l.271-.329v3.271Zm10.168 1.945 2.525-5.467h.687l2.526 5.467h-.697l-2.293-5.09h.242l-2.303 5.09h-.687Zm1.064-1.413.203-.561h3.116l.203.561h-3.522Zm7.36 1.413v-5.467h.697v4.886h3.048v.581h-3.745Zm6.484 0v-5.467h.696v4.886h3.048v.581h-3.744Z"/></g><defs><filter id="a" width="337" height="210.998" x="-.008" y=".979" color-interpolation-filters="sRGB" filterUnits="userSpaceOnUse"><feFlood flood-opacity="0" result="BackgroundImageFix"/><feColorMatrix in="SourceAlpha" result="hardAlpha" values="0 0 0 0 0 0 0 0 0 0 0 0 0 0 0 0 0 0 127 0"/><feOffset/><feGaussianBlur stdDeviation="2"/><feComposite in2="hardAlpha" operator="out"/><feColorMatrix values="0 0 0 0 0 0 0 0 0 0 0 0 0 0 0 0 0 0 0.25 0"/><feBlend in2="BackgroundImageFix" result="effect1_dropShadow_30_3606"/><feBlend in="SourceGraphic" in2="effect1_dropShadow_30_3606" result="shape"/></filter></defs></svg>

<svg width="337" height="212" viewBox="0 0 337 212" fill="none" xmlns="http://www.w3.org/2000/svg">
<g filter="url(#filter0_d_30_3606)">
<rect x="3.99219" y="4.97852" width="329" height="202.999" rx="3.02389" fill="white"/>
<path d="M115.515 105.392V106.63H114.199V114.526C113.657 114.681 112.896 114.926 111.916 115.262C110.935 115.571 110.355 115.752 110.174 115.803C108.471 116.216 106.548 116.423 104.407 116.423C101.181 116.423 98.3686 115.081 95.9689 112.397C93.6981 109.662 92.5757 106.308 92.6015 102.334C92.6273 98.3342 93.7885 95.0184 96.085 92.3864C98.3557 89.8834 101.13 88.632 104.407 88.632C106.626 88.632 108.368 88.7868 109.632 89.0964C110.148 89.1996 111.103 89.5222 112.496 90.0641V96.1409H111.335C111.154 93.8959 110.535 92.2574 109.477 91.2252C108.419 90.1931 106.794 89.7286 104.6 89.8318C99.5685 90.1415 97.0526 94.3733 97.0526 102.527C97.0526 106.217 97.7106 109.223 99.0266 111.546C100.343 113.842 102.097 115.004 104.291 115.029C105.581 115.055 106.987 114.771 108.51 114.178C109.851 113.713 110.587 113.249 110.716 112.784C110.845 112.526 110.909 112.01 110.909 111.236V106.63H106.536V105.392H115.515ZM144.054 113.791L136.661 103.224H134.3L134.377 114.681H137.977V115.881H127.217V114.681H130.816V90.4124H127.217V89.2125H138.944C142.067 89.2125 144.441 89.8318 146.066 91.0704C147.692 92.309 148.505 93.9605 148.505 96.0248C148.505 98.0891 147.782 99.7663 146.337 101.057C144.944 102.218 143.112 102.876 140.841 103.031L148.776 113.791C149.189 114.307 150.105 114.629 151.524 114.758V115.92C149.64 115.842 146.66 115.842 142.583 115.92L142.622 114.681H143.705C144.067 114.604 144.247 114.475 144.247 114.294C144.247 114.087 144.183 113.92 144.054 113.791ZM137.667 102.102C142.363 102.102 144.66 100.076 144.557 96.0248C144.454 92.2832 142.428 90.4124 138.48 90.4124H134.377L134.3 102.102H137.667ZM187.954 114.681V115.881H177.89V114.681H180.987L178.355 107.056H169.027L167.556 110.539C167.091 111.726 166.859 112.604 166.859 113.171C166.859 113.713 166.937 114.1 167.091 114.333C167.246 114.565 168.059 114.681 169.53 114.681V115.881H161.092V114.681C162.434 114.707 163.401 114.539 163.995 114.178C164.614 113.791 165.285 112.578 166.008 110.539L174.407 88.4771H175.955L185.09 114.681H187.954ZM169.569 105.585H177.813L173.981 94.2443L169.569 105.585ZM216.366 107.366C216.366 110.359 215.166 112.642 212.766 114.217C210.702 115.584 208.109 116.268 204.986 116.268C203.103 116.268 201 115.829 198.677 114.952L198.716 108.798H199.877C200.032 110.836 200.638 112.307 201.696 113.21C202.187 113.623 202.909 113.971 203.864 114.255C204.819 114.539 205.683 114.668 206.457 114.642C208.238 114.616 209.799 114.139 211.14 113.21C212.456 112.255 213.14 110.978 213.192 109.378C213.192 107.701 212.598 106.359 211.411 105.353C210.25 104.347 208.638 103.727 206.573 103.495C201.077 102.824 198.329 100.528 198.329 96.6054C198.329 93.8701 199.374 91.7929 201.464 90.3737C203.245 89.1351 205.412 88.5158 207.967 88.5158C208.715 88.5158 209.605 88.632 210.637 88.8642C211.669 89.0706 212.327 89.1738 212.611 89.1738C212.921 89.1738 213.127 88.9803 213.231 88.5932H214.314V95.5216H213.153C212.973 93.6121 212.392 92.2316 211.411 91.3801C210.457 90.5285 209.025 90.1157 207.115 90.1415C203.348 90.1931 201.49 91.8832 201.541 95.2119C201.593 98.1794 203.657 99.8695 207.734 100.282C213.489 100.902 216.366 103.263 216.366 107.366ZM244.725 107.366C244.725 110.359 243.525 112.642 241.126 114.217C239.061 115.584 236.468 116.268 233.346 116.268C231.462 116.268 229.359 115.829 227.037 114.952L227.076 108.798H228.237C228.392 110.836 228.998 112.307 230.056 113.21C230.546 113.623 231.269 113.971 232.223 114.255C233.178 114.539 234.043 114.668 234.817 114.642C236.597 114.616 238.158 114.139 239.5 113.21C240.816 112.255 241.5 110.978 241.551 109.378C241.551 107.701 240.958 106.359 239.771 105.353C238.61 104.347 236.997 103.727 234.933 103.495C229.437 102.824 226.688 100.528 226.688 96.6054C226.688 93.8701 227.734 91.7929 229.824 90.3737C231.604 89.1351 233.772 88.5158 236.326 88.5158C237.075 88.5158 237.965 88.632 238.997 88.8642C240.029 89.0706 240.687 89.1738 240.971 89.1738C241.281 89.1738 241.487 88.9803 241.59 88.5932H242.674V95.5216H241.513C241.332 93.6121 240.752 92.2316 239.771 91.3801C238.816 90.5285 237.384 90.1157 235.475 90.1415C231.707 90.1931 229.849 91.8832 229.901 95.2119C229.953 98.1794 232.017 99.8695 236.094 100.282C241.848 100.902 244.725 103.263 244.725 107.366Z" fill="#134B93"/>
<path d="M119.895 131.241H122.837V131.831H119.895V131.241ZM120.012 134.096H119.315V128.629H123.176V129.209H120.012V134.096ZM124.858 134.096L127.384 128.629H128.071L130.596 134.096H129.9L127.606 129.006H127.848L125.545 134.096H124.858ZM125.923 132.683L126.126 132.122H129.242L129.445 132.683H125.923ZM136.912 132.606C136.912 132.909 136.828 133.176 136.66 133.409C136.499 133.641 136.26 133.825 135.944 133.96C135.634 134.089 135.251 134.154 134.793 134.154C134.373 134.154 133.97 134.089 133.583 133.96C133.202 133.831 132.902 133.667 132.683 133.467L132.973 132.925C133.173 133.112 133.438 133.267 133.767 133.389C134.102 133.505 134.451 133.563 134.812 133.563C135.315 133.563 135.673 133.476 135.886 133.302C136.105 133.122 136.215 132.909 136.215 132.664C136.215 132.457 136.154 132.296 136.031 132.18C135.909 132.057 135.747 131.96 135.547 131.889C135.347 131.812 135.128 131.748 134.889 131.696C134.651 131.644 134.412 131.586 134.173 131.522C133.935 131.457 133.712 131.37 133.506 131.261C133.306 131.151 133.144 131.006 133.022 130.825C132.906 130.644 132.848 130.406 132.848 130.109C132.848 129.812 132.928 129.548 133.089 129.316C133.251 129.083 133.486 128.899 133.796 128.764C134.105 128.629 134.486 128.561 134.938 128.561C135.26 128.561 135.576 128.603 135.886 128.687C136.202 128.764 136.473 128.883 136.699 129.045L136.447 129.606C136.215 129.445 135.967 129.332 135.702 129.267C135.438 129.196 135.176 129.161 134.918 129.161C134.441 129.161 134.089 129.251 133.864 129.432C133.644 129.606 133.535 129.822 133.535 130.08C133.535 130.286 133.596 130.451 133.718 130.573C133.841 130.69 134.002 130.786 134.202 130.864C134.402 130.935 134.622 130.996 134.86 131.048C135.105 131.099 135.347 131.157 135.586 131.222C135.825 131.286 136.044 131.373 136.244 131.483C136.444 131.586 136.605 131.728 136.728 131.909C136.85 132.089 136.912 132.322 136.912 132.606ZM139.993 134.096V128.629H140.69V131.028H144.009V128.629H144.705V134.096H144.009V131.619H140.69V134.096H139.993ZM148.385 134.096V128.629H149.082V134.096H148.385ZM155.141 134.154C154.587 134.154 154.087 134.034 153.642 133.796C153.196 133.551 152.845 133.218 152.587 132.799C152.335 132.373 152.209 131.893 152.209 131.357C152.209 130.822 152.335 130.344 152.587 129.925C152.845 129.506 153.196 129.174 153.642 128.928C154.087 128.683 154.587 128.561 155.141 128.561C155.703 128.561 156.203 128.683 156.641 128.928C157.086 129.174 157.435 129.506 157.686 129.925C157.944 130.344 158.073 130.822 158.073 131.357C158.073 131.893 157.944 132.373 157.686 132.799C157.435 133.218 157.086 133.551 156.641 133.796C156.203 134.034 155.703 134.154 155.141 134.154ZM155.141 133.554C155.574 133.554 155.957 133.46 156.293 133.273C156.628 133.08 156.893 132.818 157.086 132.489C157.28 132.154 157.377 131.777 157.377 131.357C157.377 130.938 157.277 130.564 157.077 130.235C156.883 129.906 156.619 129.648 156.283 129.461C155.954 129.267 155.574 129.17 155.141 129.17C154.716 129.17 154.332 129.267 153.99 129.461C153.654 129.648 153.39 129.906 153.196 130.235C153.003 130.564 152.906 130.938 152.906 131.357C152.906 131.777 153.003 132.154 153.196 132.489C153.39 132.818 153.654 133.08 153.99 133.273C154.332 133.46 154.716 133.554 155.141 133.554ZM161.2 134.096V128.629H161.771L165.487 133.234H165.216V128.629H165.913V134.096H165.332L161.616 129.48H161.897V134.096H161.2ZM174.35 131.241H177.292V131.831H174.35V131.241ZM174.467 134.096H173.77V128.629H177.631V129.209H174.467V134.096ZM182.926 134.154C182.372 134.154 181.872 134.034 181.427 133.796C180.981 133.551 180.63 133.218 180.372 132.799C180.12 132.373 179.994 131.893 179.994 131.357C179.994 130.822 180.12 130.344 180.372 129.925C180.63 129.506 180.981 129.174 181.427 128.928C181.872 128.683 182.372 128.561 182.926 128.561C183.488 128.561 183.988 128.683 184.426 128.928C184.871 129.174 185.22 129.506 185.471 129.925C185.729 130.344 185.858 130.822 185.858 131.357C185.858 131.893 185.729 132.373 185.471 132.799C185.22 133.218 184.871 133.551 184.426 133.796C183.988 134.034 183.488 134.154 182.926 134.154ZM182.926 133.554C183.359 133.554 183.742 133.46 184.078 133.273C184.413 133.08 184.678 132.818 184.871 132.489C185.065 132.154 185.162 131.777 185.162 131.357C185.162 130.938 185.062 130.564 184.862 130.235C184.668 129.906 184.404 129.648 184.068 129.461C183.739 129.267 183.359 129.17 182.926 129.17C182.501 129.17 182.117 129.267 181.775 129.461C181.44 129.648 181.175 129.906 180.981 130.235C180.788 130.564 180.691 130.938 180.691 131.357C180.691 131.777 180.788 132.154 180.981 132.489C181.175 132.818 181.44 133.08 181.775 133.273C182.117 133.46 182.501 133.554 182.926 133.554ZM188.985 134.096V128.629H191.104C191.582 128.629 191.988 128.703 192.324 128.851C192.666 128.999 192.93 129.216 193.117 129.499C193.304 129.777 193.398 130.115 193.398 130.515C193.398 130.902 193.304 131.238 193.117 131.522C192.93 131.806 192.666 132.022 192.324 132.17C191.988 132.318 191.582 132.393 191.104 132.393H189.372L189.682 132.083V134.096H188.985ZM192.73 134.096L191.298 132.112H192.062L193.485 134.096H192.73ZM189.682 132.151L189.411 131.822H191.075C191.604 131.822 192.008 131.709 192.285 131.483C192.562 131.251 192.701 130.928 192.701 130.515C192.701 130.096 192.562 129.774 192.285 129.548C192.008 129.322 191.604 129.209 191.075 129.209H189.411L189.682 128.88V132.151ZM199.85 134.096L202.375 128.629H203.062L205.588 134.096H204.891L202.598 129.006H202.84L200.537 134.096H199.85ZM200.914 132.683L201.117 132.122H204.233L204.436 132.683H200.914ZM208.274 134.096V128.629H208.971V133.515H212.019V134.096H208.274ZM214.758 134.096V128.629H215.454V133.515H218.502V134.096H214.758Z" fill="#134B93"/>
</g>
<defs>
<filter id="filter0_d_30_3606" x="-0.0078125" y="0.978516" width="337" height="210.998" filterUnits="userSpaceOnUse" color-interpolation-filters="sRGB">
<feFlood flood-opacity="0" result="BackgroundImageFix"/>
<feColorMatrix in="SourceAlpha" type="matrix" values="0 0 0 0 0 0 0 0 0 0 0 0 0 0 0 0 0 0 127 0" result="hardAlpha"/>
<feOffset/>
<feGaussianBlur stdDeviation="2"/>
<feComposite in2="hardAlpha" operator="out"/>
<feColorMatrix type="matrix" values="0 0 0 0 0 0 0 0 0 0 0 0 0 0 0 0 0 0 0.25 0"/>
<feBlend mode="normal" in2="BackgroundImageFix" result="effect1_dropShadow_30_3606"/>
<feBlend mode="normal" in="SourceGraphic" in2="effect1_dropShadow_30_3606" result="shape"/>
</filter>
</defs>
</svg>
